X:153
T:Skater., The JJo5.153
Q:1/2=80
M:C|
L:1/8
B:J.Johnson Choice Collection Vol 5, 1750
Z:vmp.Mike Hicken 2015 www.village-music-project.org.uk
N:* This note is shown as a semibreve in the original but has been changed to balance the rhythm.
N:** There is no closing repeat sign shown here in the original.
K:F
A/B/|c>dcA B(GGB)|AcfA G/G/GG A/B/|c>dcB Acfd|1 ecGB c/c/cc :|2 "*"c7|
|: e/f/|g>age f>gfd|efed (^cA)Af/g/|a>baA g>agA|fd ed/^c/ d3f|
c>d cB/A/ (BGG)(A/B/)|AcfA G/G/GG A/B/|c>d (cB/A/) (BA/G/) Ac|fdcA F/F/FF "**":|

